X:1
T:The Well-Tempered Clavier Part II Fuga XIV
T:BWV 883
T:J. S. Bach
%%score { ( 1 2 ) | 3 }
L:1/8
M:4/4
K:A
V:1 treble nm="Harp"
V:2 treble 
V:3 bass 
V:1
 z8 | z8 | z8 | z2 z F EC A2- | AG/F/ G2- Gc F2- | %5
 FE/^D/ EC E/4D/4E/4D/4E/4D/4E/4D/4 E/4D/4E/4D/4E/4D/4E/4D/4 | Cc F2- FB E2- | E A2 G2 F2 ^E | %8
 F2 z B GE z A | F^D z G ^EC F2- | F2 ^E2 FABd | z GAc z F/G/ A/4G/4A/4G/4A/4G/4F/4G/4 | %12
 A2 z ^d ^BG z c | f2 ^d2 gefa | z deg z cBA | G2 z c AF d2- | dc/B/ c2- cf B2- | BA/G/ AF G4 | %18
 F3 B EGAc | F2 G2 A2 z2 | z4 z d d/4c/4d/4c/4d/4c/4B/ | ^AF B4 A=A- | AB B/4A/4B/4A/4B/4A/4G/ F4 | %23
 E3 A B3 G | c3 A d4- | dd d/4c/4d/4c/4d/4c/4B/ A2 f2- | fe e/4d/4e/4d/4e/4d/4c/ dB e2- | %27
 efdB c2 z ^A | Bd d/4c/4d/4c/4d/4c/4B/ A3 d | =G3 c F2 z2 | z ^EFA ^DF B2- | BA/G/ Ac FA d2- | %32
 dd d/4c/4d/4c/4d/4c/4B/ A4- | AG/F/ G^D Ee e/4^d/4e/4d/4e/4d/4c/ | ^Bfe^d e3 d/c/ | g^B c4 B2 | %36
 c2 z c B/c/B/A/ B/A/G/B/ | A/B/A/G/ A/G/F/A/ GcF^A | BF B4 A2- | A2 G4 F2 | G^Bce z e^df- | %41
 f^B c2- c^^F G2- | G^A^D^^F G2 z/ =A/B/G/ | A/B/A/G/ A/G/F/A/ G/A/B/G/ c2- | %44
 cc B2- B/B/A/G/ A/B/c/A/ | d/e/d/c/ d/c/B/d/ c/d/c/B/ c/B/A/c/ | B4- B/G/^A/B/ A/B/c/A/ | %47
 B/^A/B/c/ B/c/d/B/ c/B/c/d/ c/d/e/c/ | d/e/d/c/ d/c/B/d/ =G4- | G/=G/F/E/ F/E/D/F/ B,2 C2 | %50
 DF B2- B^A/G/ A2 | B2 z e A3 d | =G3 =c ^AF- F/B/^c/d/ | ^Ec F2- FE/F/ G/A/B/G/ | %54
 B/A/G/F/ d2- dc/B/ c2- | cf B2- BA/G/ AF | G4 Fcfa | g4- gagf | e4- ee^df | ^B3 ^d G2 z c | %60
 B/c/B/A/ B/A/G/B/ A/B/A/G/ A/G/F/A/ | G/A/G/F/ G/F/E/G/ F/G/F/E/ F/E/^D/F/ | E2 z2 z =GFE | %63
 D2 z2 z FED | C3 C F2- F^E/F/ | GF/G/ A z z2 z c | AF d2- dc/B/ c2- | cf B2- BA/G/ AF | %68
 G4- G/F^E/- ^E/FG/ | C F2 ^E !fermata!F4 |] %70
V:2
 z2 z[I:staff +1] C A,F, D2- | DC/B,/ C2- CF B,2- | %2
 B,A,/G,/ A,F, A,/4G,/4A,/4G,/4A,/4G,/4A,/4G,/4 A,/4G,/4A,/4G,/4A,/4G,/4A,/4G,/4 | %3
 F,G,A,B, C2[I:staff -1] z[I:staff +1] ^D | %4
 E2[I:staff -1] z[I:staff +1] E ^A,2[I:staff -1] z[I:staff +1] ^B, | %5
 C2[I:staff -1] z[I:staff +1] C- C^B,/^A,/ B,G, | E3 A, D3 G, | C2 B,2 A,2 G,2 | %8
 F,2[I:staff -1] z2 z2[I:staff +1] E,2 | A,2[I:staff -1] =DB, G,2 z A, | %10
 B,D z G, A,C z[I:staff +1] F, | G,B,[I:staff -1] z[I:staff +1] A,[I:staff -1] D2 B,2 | %12
 EC^DF z[I:staff +1] ^B,CE | %13
[I:staff -1] z ^A,/^B,/ C/4B,/4C/4B,/4C/4B,/4A,/4B,/4 C2 z[I:staff +1] F | %14
 DB,[I:staff -1] z[I:staff +1] E CA,[I:staff -1] z[I:staff +1] C | %15
 B,A, A,/4G,/4A,/4G,/4A,/4G,/4A,/4G,/4 F,2[I:staff -1] z B | E3 E A2- AG/F/ | G^E F2- F=E/^D/ E2- | %18
 ED/C/ D4 C2- | CDCE C2 z2 | z C C/4B,/4C/4B,/4C/4B,/4[I:staff +1]A,/ G,3 C | %21
 F,[I:staff -1]F F/4E/4F/4E/4F/4E/4D/ C=G G/4F/4G/4F/4G/4F/4E/ | ^DB, E4 D=D- | DC/B,/ CF DB, E2- | %24
 ED F2- FA A/4G/4A/4G/4A/4G/4F/ | EBAG F[I:staff +1]EDC | B,2 F2- FD D/4C/4D/4C/4D/4C/4B,/ | %27
 ^A,F, B,4 A,[I:staff -1]F | D[I:staff +1]B,[I:staff -1] =G2- GF/E/ F2- | FB E2- ED/C/ DB, | %30
 C4 B,3 G | E4 D3 B | G^E z G- GF/E/ F^D | ^B,4 C z z2 | z ^d d/4c/4d/4c/4d/4c/4^B/ c=BAF | %35
[I:staff +1] ^B,^DG,[I:staff -1]G F/G/F/E/ F/E/^D/E/ | E/F/E/^D/[I:staff +1] E/D/C/E/ DGC^E | %37
 F/D/C/B,/ C/A,/D- DG,^A,C | F,[I:staff -1] z z F E/F/E/^D/ E/D/C/E/ | %39
 ^D/E/D/C/ D/C/^B,/D/ C/D/C/B,/ C/E/D/C/ | ^B,^DEG z GFA- | AG/F/ G^A ^D/E/D/C/ D/C/B,/D/ | %42
 C/^D/C/B,/ C/B,/^A,/C/ B,/C/D/B,/ E2- | E2 ^D2 E2 z/ B/A/G/ | F3 F E2 z2 | %45
 z[I:staff +1] A G2 GC F2- | F/[I:staff -1]A/G/F/ G/F/^E/G/ F[I:staff +1]C D2- | %47
 D^D E2- E[I:staff -1]^E F2- | F4- F/F/E/D/ E/D/C/E/ | A,4- A,/A,/=G,/F,/ G,/F,/E,/G,/ | %50
 F, z z B, E2 z F | DB, =G2- GF/E/ F2- | FB E2- ED/C/ D[I:staff +1]B, |[I:staff -1] C4 B,2 z2 | %54
 z2 z/ c/B/A/ G2- G/B/A/G/ | FA A/4G/4A/4G/4A/4G/4F/ ^EC F2- | F2 ^E2 F2 z2 | z Gce ^d4- | %58
 dGcB A4- | A^DGF- F/F/E/D/ C/D/E/C/ | ^D2 z[I:staff +1] E C>E E/4D/4E/4D/4E/4D/4C/ | %61
 ^B,G, C4 B,2 |[I:staff -1] CG,CE ^A,2 B,C- | CF,B,D G,2 A,B,- | B,A,/G,/ A,2- A,B,/C/ D2- | %65
 D/C/^D/^E/ F/G/A/F/ B/c/d/B/ B/A/G/A/ | F z z F E/F/[I:staff +1]E/D/ E/D/C/E/ | %67
 D/E/D/C/ D/C/B,/[I:staff -1]D/ C/D/C/B,/ C/[I:staff +1]B,/A,/C/ | %68
 B,/C/B,/A,/ B,/A,/G,/B,/ A,[I:staff -1]B,CD | A,2 G,2 F,4 |] %70
V:3
 z8 | z8 | z8 | z8 | z8 | z8 | z8 | z4 z2 z C, | A,,F,, D,2- D,C,/B,,/ C,2- | %9
 C,F, B,,2- B,,A,,/G,,/ A,,F,, | %10
 A,,/4G,,/4A,,/4G,,/4A,,/4G,,/4A,,/4G,,/4 A,,/4G,,/4A,,/4G,,/4A,,/4G,,/4A,,/4G,,/4 F,,2 D,2- | %11
 D,2 C,2 B,,2 z E, | C,A,, F,4 E,2 | ^D,2 z G, E,C, A,2- | A,2 G,2- G,C, F,2- | F,2 ^E,2 F,A,B,D | %16
 G,E,A,C F,^D,G,B, | ^E,C,F,A, B,G,CB, | ^A,F,B,=A, G,E,F,A, | %19
 D,B,,E,E,, A,,A, A,/4G,/4A,/4G,/4A,/4G,/4F,/ | ^E,C, F,4 E,=E,- | E,D,C,B,, E,C,F,F,, | %22
 B,,2 z C, A,,C C/4B,/4C/4C/4B,/4C/4A,/ | G,E, A,4 G,E, | A,3 F, B,3 G, | C4- CC B,>A, | %26
 G,2 ^A,2 B,2 =G,2 | F,2 z =G, E,C, F,2- | F,2 E,D, C,A,,D,C, | %29
 B,,D, D,/4C,/4D,/4C,/4D,/4C,/4B,,/ ^A,,F,, B,,2- | B,,A,,/G,,/ A,,2- A,,G,,/F,,/ G,,E,, | %31
 C,C,, C,2- C,B,,/A,,/ B,,G,, | ^E,,G,^E,C, F,G,A,F, | G,G,, z G, E,C, A,2- | %34
 A,G,/F,/ G,2- G,C F,2- | F,E,/^D,/ E,C, D,2 G,2 | C,2 z2 z4 | z2 z F, E,/F,/E,/D,/ E,/D,/C,/E,/ | %38
 D,/E,/D,/C,/ D,/C,/B,,/D,/ C,F,,F,A, | B,,B,E,G, A,,G,,A,,A, | %40
 G,/A,/G,/F,/ G,/F,/E,/G,/ F,/G,/F,/E,/ F,/E,/^D,/F,/ | E,/F,/E,/^D,/ E,/D,/C,/E,/ ^^F,,^A,,B,,E, | %42
 ^A,,C,^D,^D,, G,,G,/F,/ G,C, | F,,F,/E,/ F,B,, E,/F,/G,/E,/ A,/B,/C/A,/ | %44
 D/E/D/C/ D/C/B,/D/ C/D/C/B,/ C/B,/A,/C/ | B,3 E A,3 D | G,B,^E,C, F,3 F, | =G,3 ^G, A,3 ^A, | %48
 B,F,B,,D, E,F,=G,E, | C,A,,D,F,, =G,,B,,E,,A,, | %50
 D,/C,/D,/E,/ D,/=G,/F,/G,/ C,/B,,/C,/D,/ C,/F,/E,/F,/ | %51
 B,,/C,/D,/B,,/ E,/D,/C,/B,,/ C,/E,/D,/C,/ D,/E,/F,/D,/ | %52
 E,/D,/E,/F,/ =G,/F,/E,/G,/ F,/^G,/^A,/F,/ B,/B,,/B,- | %53
 B,/A,/G,/B,/ A,/G,/F,/A,/ G,/A,/G,/F,/ ^E,/F,/G,/E,/ | %54
 F,G,/A,/ B,/A,/G,/F,/ E,/F,/E,/D,/ E,/D,/C,/E,/ | %55
 D,/E,/D,/C,/ D,/C,/B,,/D,/ C,/D,/C,/B,,/ C,/B,,/A,,/C,/ | %56
 B,,/C,/B,,/A,,/ B,,/A,,/G,,/B,,/ A,,/G,,/F,,/G,,/ A,,/B,,/C,/^D,/ | %57
 E,/^D,/C,/D,/ E,/F,/G,/^A,/ ^B,/A,/B,/C/ B,/C/^D/B,/ | %58
 C/^D/E/D/ C/B,/A,/G,/ F,/E,/F,/G,/ F,/G,/A,/F,/ | G,/F,/G,/A,/ G,/F,/E,/^D,/ E,C, A,2- | %60
 A,G,/F,/ G,2- G,C F,2- | F,E,/^D,/ E,C, D,4 | %62
 C,/^B,,/C,/^D,/ E,/F,/=G,/E,/ F,/G,/F,/E,/ =D,/C,/=B,,/^A,,/ | %63
 B,,/F,,/B,,/C,/ D,/E,/F,/D,/ E,/F,/E,/E,/ C,/B,,/A,,/G,,/ | %64
 A,,/E,,/A,,/B,,/ C,/D,/E,/C,/ D,/E,/D,/C,/ B,,/A,,/G,,/F,,/ | ^E,,C,, F,,4 E,,2 | %66
 F,,/F,/G,/A,/ B,/C/B,/A,/ G,2 z ^A, | B,>A, G,>F, ^E,C, F,2- | F,2 ^E,2 F,D,A,,B,, | %69
 C,2 C,,2 !fermata!F,,4 |] %70

